X: 17669
T: Holly Bush, The
R: reel
M: 4/4
K: Dmixolydian
A2FA DAFA|ABde fded|cG~G2 EG~G2|cedc AGFG|
A2FA DAFA|ABde fded|cG~G2 cedB|cAGE D4:|:
Add^c defg|aged cAGE|G2EG cgeg|aged cAGc|
Add^c defg|addc dcAB|c2Bd cAGc|AEGE D4:|

